austria/municipalities/70605.svg

<?xml version="1.0" encoding="UTF-8"?>
<!DOCTYPE svg PUBLIC "-//W3C//DTD SVG 1.1//EN" "http://www.w3.org/Graphics/SVG/1.1/DTD/svg11.dtd">
<svg xmlns="http://www.w3.org/2000/svg" version="1.1" width="166px" height="192px" style="shape-rendering:geometricPrecision; text-rendering:geometricPrecision; image-rendering:optimizeQuality; fill-rule:evenodd; clip-rule:evenodd" xmlns:xlink="http://www.w3.org/1999/xlink">
<g><path style="opacity:1" fill="#08080a" d="M -0.5,-0.5 C 54.8333,-0.5 110.167,-0.5 165.5,-0.5C 165.5,39.5 165.5,79.5 165.5,119.5C 157.038,159.629 132.705,183.629 92.5,191.5C 85.5,191.5 78.5,191.5 71.5,191.5C 30.9271,182.927 6.9271,158.261 -0.5,117.5C -0.5,78.1667 -0.5,38.8333 -0.5,-0.5 Z"/></g>
<g><path style="opacity:1" fill="#253167" d="M 3.5,3.5 C 56.1667,3.5 108.833,3.5 161.5,3.5C 161.667,41.8348 161.5,80.1681 161,118.5C 153.224,160.44 128.057,183.44 85.5,187.5C 86.1126,179.484 86.9459,171.484 88,163.5C 91.4018,153.961 94.4018,144.294 97,134.5C 97.6667,128.167 97.6667,121.833 97,115.5C 96.9024,113.381 96.0691,111.714 94.5,110.5C 88.6317,115.565 84.7983,121.898 83,129.5C 71.1402,103.003 66.1402,104.336 68,133.5C 69.664,142.159 72.3307,150.492 76,158.5C 78.1537,168.05 79.3203,177.716 79.5,187.5C 46.2413,185.056 22.7413,168.723 9,138.5C 6.44097,131.372 4.7743,124.038 4,116.5C 3.50001,78.8348 3.33335,41.1681 3.5,3.5 Z"/></g>
<g><path style="opacity:1" fill="#0d0b09" d="M 81.5,6.5 C 84.2254,7.71304 86.5588,9.54638 88.5,12C 86.6976,15.3001 84.6976,18.4668 82.5,21.5C 80.625,18.2489 78.625,15.0823 76.5,12C 78.3734,10.2962 80.0401,8.46283 81.5,6.5 Z"/></g>
<g><path style="opacity:1" fill="#df9f1d" d="M 81.5,8.5 C 83.5441,9.03118 85.2107,10.1978 86.5,12C 85.2921,14.2503 83.9587,16.417 82.5,18.5C 81.5465,16.0918 80.2132,13.9251 78.5,12C 79.7101,10.9609 80.7101,9.79423 81.5,8.5 Z"/></g>
<g><path style="opacity:1" fill="#13100d" d="M 124.5,6.5 C 127.225,7.71304 129.559,9.54638 131.5,12C 129.208,15.4162 127.041,18.9162 125,22.5C 123.302,18.9369 121.468,15.4369 119.5,12C 120.679,9.65715 122.346,7.82382 124.5,6.5 Z"/></g>
<g><path style="opacity:1" fill="#db9d1e" d="M 124.5,8.5 C 126.595,8.75978 127.928,9.92645 128.5,12C 127.722,14.3899 126.555,16.5566 125,18.5C 124.086,16.3359 122.919,14.3359 121.5,12.5C 122.524,11.1482 123.524,9.81486 124.5,8.5 Z"/></g>
<g><path style="opacity:1" fill="#0e0d0e" d="M 39.5,6.5 C 42.2254,7.71304 44.5588,9.54638 46.5,12C 44.208,15.4162 42.0414,18.9162 40,22.5C 38.2866,18.9054 36.4533,15.4054 34.5,12C 35.6793,9.65715 37.3459,7.82382 39.5,6.5 Z"/></g>
<g><path style="opacity:1" fill="#d99c1e" d="M 39.5,8.5 C 41.5441,9.03118 43.2107,10.1978 44.5,12C 42.8767,14.0795 41.3767,16.2462 40,18.5C 39.0857,16.3359 37.919,14.3359 36.5,12.5C 37.5244,11.1482 38.5244,9.81486 39.5,8.5 Z"/></g>
<g><path style="opacity:1" fill="#131110" d="M 26.5,9.5 C 29.7067,10.5323 32.2067,12.5323 34,15.5C 36.7706,19.8041 38.7706,24.4707 40,29.5C 41.9033,21.3479 46.07,14.6813 52.5,9.5C 55.2375,16.233 56.0708,23.233 55,30.5C 52.8183,42.1899 49.485,53.5233 45,64.5C 43.9133,71.4598 43.4133,78.4598 43.5,85.5C 41.2075,85.7564 39.0408,85.4231 37,84.5C 36.8026,76.0674 35.8026,67.734 34,59.5C 29.0344,48.1367 25.8677,36.3033 24.5,24C 25.2149,19.163 25.8815,14.3296 26.5,9.5 Z"/></g>
<g><path style="opacity:1" fill="#e4a31c" d="M 27.5,12.5 C 30.4278,13.5914 32.5945,15.5914 34,18.5C 36.4745,24.4041 38.6412,30.4041 40.5,36.5C 41.4954,27.1818 45.1621,19.1818 51.5,12.5C 52.2508,13.376 52.7508,14.376 53,15.5C 53.6862,22.8749 53.3529,30.2083 52,37.5C 49.9287,45.381 47.262,53.0476 44,60.5C 42.5728,68.4388 41.7395,76.4388 41.5,84.5C 40.5,84.5 39.5,84.5 38.5,84.5C 38.5594,76.0815 37.7261,67.7482 36,59.5C 28.2131,44.6947 25.3798,29.028 27.5,12.5 Z"/></g>
<g><path style="opacity:1" fill="#120f0e" d="M 111.5,9.5 C 119.192,13.8472 123.692,20.5138 125,29.5C 126.903,21.3479 131.07,14.6813 137.5,9.5C 140.099,15.9129 140.933,22.5796 140,29.5C 138.212,40.1966 135.212,50.5299 131,60.5C 129.123,68.73 128.29,77.0634 128.5,85.5C 126.208,85.7564 124.041,85.4231 122,84.5C 121.664,77.4665 120.998,70.4665 120,63.5C 116.802,54.2393 113.802,44.906 111,35.5C 110.289,26.8057 110.456,18.1391 111.5,9.5 Z"/></g>
<g><path style="opacity:1" fill="#e3a31c" d="M 112.5,12.5 C 115.428,13.5914 117.594,15.5914 119,18.5C 121.711,24.4778 123.877,30.4778 125.5,36.5C 126.32,28.9071 128.82,21.9071 133,15.5C 135.753,11.2654 137.42,11.5987 138,16.5C 138.587,23.5347 138.254,30.5347 137,37.5C 134.333,45.5 131.667,53.5 129,61.5C 127.426,69.0891 126.593,76.7557 126.5,84.5C 125.5,84.5 124.5,84.5 123.5,84.5C 123.607,78.1202 123.107,71.7869 122,65.5C 118.058,54.0077 114.725,42.341 112,30.5C 111.425,24.4781 111.591,18.4781 112.5,12.5 Z"/></g>
<g><path style="opacity:1" fill="#0e0c0b" d="M 103.5,57.5 C 105.812,59.1455 107.812,61.1455 109.5,63.5C 107.831,67.1382 105.831,70.4715 103.5,73.5C 102.102,69.9388 100.102,66.7721 97.5,64C 99.7059,61.9633 101.706,59.7966 103.5,57.5 Z"/></g>
<g><path style="opacity:1" fill="#db9d1e" d="M 103.5,59.5 C 105.145,60.4787 106.479,61.812 107.5,63.5C 106.333,65.8333 105.167,68.1667 104,70.5C 102.953,68.2379 101.787,66.0712 100.5,64C 101.315,62.3566 102.315,60.8566 103.5,59.5 Z"/></g>
<g><path style="opacity:1" fill="#100e0e" d="M 59.5,58.5 C 62.6344,59.2785 65.3011,60.9452 67.5,63.5C 65.4962,66.8426 63.4962,70.1759 61.5,73.5C 59.0116,70.5342 57.0116,67.2009 55.5,63.5C 56.8569,61.8144 58.1902,60.1477 59.5,58.5 Z"/></g>
<g><path style="opacity:1" fill="#d99c1e" d="M 60.5,60.5 C 62.5441,61.0312 64.2107,62.1978 65.5,64C 63.8767,66.0795 62.3767,68.2462 61,70.5C 59.8333,68.1667 58.6667,65.8333 57.5,63.5C 58.7701,62.7124 59.7701,61.7124 60.5,60.5 Z"/></g>
<g><path style="opacity:1" fill="#14110f" d="M 93.5,63.5 C 99.3143,68.342 102.814,74.6753 104,82.5C 105.412,74.5984 108.912,67.765 114.5,62C 115.448,61.5172 116.448,61.3505 117.5,61.5C 118.538,69.8056 118.705,78.1389 118,86.5C 115.29,96.2539 112.29,105.921 109,115.5C 108.002,122.467 107.336,129.467 107,136.5C 104.959,137.423 102.792,137.756 100.5,137.5C 100.991,122.77 98.1581,108.77 92,95.5C 88.5135,85.3325 87.8469,74.9991 90,64.5C 90.6284,61.0465 91.7951,60.7131 93.5,63.5 Z"/></g>
<g><path style="opacity:1" fill="#e4a31c" d="M 93.5,63.5 C 98.7667,70.9477 102.1,79.2811 103.5,88.5C 105.315,79.2124 109.149,70.8791 115,63.5C 116.163,65.2852 116.83,67.2852 117,69.5C 117.465,76.9176 116.798,84.2509 115,91.5C 112.333,99.5 109.667,107.5 107,115.5C 106.048,122.136 105.548,128.803 105.5,135.5C 104.5,135.5 103.5,135.5 102.5,135.5C 102.539,121.862 99.706,108.862 94,96.5C 91.3103,87.6746 90.3103,78.6746 91,69.5C 91.0023,66.9488 91.8356,64.9488 93.5,63.5 Z"/></g>
<g><path style="opacity:1" fill="#14110f" d="M 69.5,9.5 C 72.0562,10.5434 74.2228,12.2101 76,14.5C 78.8762,18.919 81.2095,23.5857 83,28.5C 84.8119,20.8645 88.6453,14.5312 94.5,9.5C 96.0691,10.714 96.9024,12.3807 97,14.5C 97.6667,20.8333 97.6667,27.1667 97,33.5C 94.456,43.3522 91.456,53.0189 88,62.5C 86.8363,70.135 86.003,77.8017 85.5,85.5C 83.5,85.5 81.5,85.5 79.5,85.5C 79.3314,78.8126 78.8314,72.146 78,65.5C 74.3792,54.5906 71.0459,43.5906 68,32.5C 67.132,24.7208 67.632,17.0542 69.5,9.5 Z"/></g>
<g><path style="opacity:1" fill="#e3a31c" d="M 70.5,11.5 C 77.1553,18.4177 81.1553,26.751 82.5,36.5C 84.3213,27.186 88.1546,18.8527 94,11.5C 96.9118,20.7632 96.9118,30.0965 94,39.5C 91.5271,47.2528 88.8604,54.9194 86,62.5C 84.936,69.458 84.2694,76.458 84,83.5C 83.586,83.9574 83.086,84.2907 82.5,84.5C 80.8858,76.9272 79.7191,69.2605 79,61.5C 74.9976,52.4925 71.9976,43.1592 70,33.5C 69.3642,26.1439 69.5309,18.8106 70.5,11.5 Z"/></g>
<g><path style="opacity:1" fill="#14110e" d="M 48.5,61.5 C 51.0562,62.5434 53.2228,64.2101 55,66.5C 57.5509,70.9346 59.5509,75.6012 61,80.5C 63.1796,73.308 67.0129,67.1413 72.5,62C 73.4835,61.4092 74.1501,61.7425 74.5,63C 76.7158,70.7408 77.0491,78.5741 75.5,86.5C 73.1724,95.3163 70.3391,103.983 67,112.5C 65.4253,120.764 64.5919,129.097 64.5,137.5C 62.5,137.5 60.5,137.5 58.5,137.5C 58.371,129.763 57.5377,122.096 56,114.5C 52.5999,104.966 49.5999,95.2991 47,85.5C 46.0163,77.3454 46.5163,69.3454 48.5,61.5 Z"/></g>
<g><path style="opacity:1" fill="#e4a31c" d="M 49.5,63.5 C 55.973,70.4558 59.8063,78.7891 61,88.5C 62.5764,79.0135 66.5764,70.6802 73,63.5C 74.9564,72.1604 74.9564,80.8271 73,89.5C 69.7129,99.0751 66.7129,108.742 64,118.5C 63.5545,124.18 63.0545,129.846 62.5,135.5C 61.5,135.5 60.5,135.5 59.5,135.5C 59.7297,128.445 59.2297,121.445 58,114.5C 52.6635,102.159 49.1635,89.3254 47.5,76C 48.0297,71.7898 48.6963,67.6232 49.5,63.5 Z"/></g>
<g><path style="opacity:1" fill="#e3a31c" d="M 70.5,112.5 C 73.7089,115.228 76.2089,118.561 78,122.5C 79.8057,127.416 81.3057,132.416 82.5,137.5C 84.199,128.107 88.0324,119.774 94,112.5C 96.9118,121.763 96.9118,131.096 94,140.5C 87.3412,155.132 84.1746,170.465 84.5,186.5C 83.5,186.5 82.5,186.5 81.5,186.5C 80.9382,177.429 79.7715,168.429 78,159.5C 74.7303,151.358 72.0637,143.024 70,134.5C 69.2743,127.131 69.4409,119.798 70.5,112.5 Z"/></g>
<g><path style="opacity:1" fill="#14100c" d="M 81.5,107.5 C 84.3404,108.423 86.6737,110.09 88.5,112.5C 86.5,115.833 84.5,119.167 82.5,122.5C 80.9296,118.925 78.9296,115.592 76.5,112.5C 78.5212,111.145 80.1879,109.479 81.5,107.5 Z"/></g>
<g><path style="opacity:1" fill="#e1a11d" d="M 81.5,109.5 C 83.5441,110.031 85.2107,111.198 86.5,113C 84.8978,114.935 83.7311,117.101 83,119.5C 81.6233,117.246 80.1233,115.08 78.5,113C 79.7101,111.961 80.7101,110.794 81.5,109.5 Z"/></g>
<g><path style="opacity:1" fill="#fdfdfd" d="M -0.5,117.5 C 6.9271,158.261 30.9271,182.927 71.5,191.5C 47.5,191.5 23.5,191.5 -0.5,191.5C -0.5,166.833 -0.5,142.167 -0.5,117.5 Z"/></g>
<g><path style="opacity:1" fill="#fdfdfd" d="M 165.5,119.5 C 165.5,143.5 165.5,167.5 165.5,191.5C 141.167,191.5 116.833,191.5 92.5,191.5C 132.705,183.629 157.038,159.629 165.5,119.5 Z"/></g>
</svg>

<svg xmlns="http://www.w3.org/2000/svg" width="166" height="192" style="shape-rendering:geometricPrecision;text-rendering:geometricPrecision;image-rendering:optimizeQuality;fill-rule:evenodd;clip-rule:evenodd"><path style="opacity:1" fill="#08080a" d="M-.5-.5h166v120c-8.462 40.129-32.795 64.129-73 72h-21c-40.573-8.573-64.573-33.239-72-74V-.5z"/><path style="opacity:1" fill="#253167" d="M3.5 3.5h158c.167 38.335 0 76.668-.5 115-7.776 41.94-32.943 64.94-75.5 69a438.75 438.75 0 0 1 2.5-24 364.698 364.698 0 0 0 9-29 90.496 90.496 0 0 0 0-19c-.098-2.119-.93-3.786-2.5-5-5.868 5.065-9.702 11.398-11.5 19-11.86-26.497-16.86-25.164-15 4a109.33 109.33 0 0 0 8 25 143.453 143.453 0 0 1 3.5 29c-33.259-2.444-56.759-18.777-70.5-49a92.996 92.996 0 0 1-5-22c-.5-37.665-.667-75.332-.5-113z"/><path style="opacity:1" fill="#0d0b09" d="M81.5 6.5c2.725 1.213 5.059 3.046 7 5.5a88.377 88.377 0 0 1-6 9.5 139.632 139.632 0 0 0-6-9.5 38.439 38.439 0 0 0 5-5.5z"/><path style="opacity:1" fill="#df9f1d" d="M81.5 8.5c2.044.531 3.71 1.698 5 3.5a64.504 64.504 0 0 1-4 6.5 21.738 21.738 0 0 0-4-6.5 14.691 14.691 0 0 0 3-3.5z"/><path style="opacity:1" fill="#13100d" d="M124.5 6.5c2.725 1.213 5.059 3.046 7 5.5a168.583 168.583 0 0 0-6.5 10.5 157.356 157.356 0 0 0-5.5-10.5c1.179-2.343 2.846-4.176 5-5.5z"/><path style="opacity:1" fill="#db9d1e" d="M124.5 8.5c2.095.26 3.428 1.426 4 3.5a20.447 20.447 0 0 1-3.5 6.5 26.848 26.848 0 0 0-3.5-6 513.226 513.226 0 0 0 3-4z"/><path style="opacity:1" fill="#0e0d0e" d="M39.5 6.5c2.725 1.213 5.059 3.046 7 5.5A168.773 168.773 0 0 0 40 22.5 156.009 156.009 0 0 0 34.5 12c1.18-2.343 2.846-4.176 5-5.5z"/><path style="opacity:1" fill="#d99c1e" d="M39.5 8.5c2.044.531 3.71 1.698 5 3.5a69.049 69.049 0 0 0-4.5 6.5 26.86 26.86 0 0 0-3.5-6 493.763 493.763 0 0 0 3-4z"/><path style="opacity:1" fill="#131110" d="M26.5 9.5c3.207 1.032 5.707 3.032 7.5 6a45.749 45.749 0 0 1 6 14c1.903-8.152 6.07-14.819 12.5-20 2.737 6.733 3.57 13.733 2.5 21a174.104 174.104 0 0 1-10 34 125.843 125.843 0 0 0-1.5 21c-2.292.256-4.46-.077-6.5-1a130.963 130.963 0 0 0-3-25A121.755 121.755 0 0 1 24.5 24a755.87 755.87 0 0 0 2-14.5z"/><path style="opacity:1" fill="#e4a31c" d="M27.5 12.5c2.928 1.091 5.094 3.091 6.5 6a189.62 189.62 0 0 1 6.5 18c.995-9.318 4.662-17.318 11-24a6.807 6.807 0 0 1 1.5 3 79.6 79.6 0 0 1-1 22 156.444 156.444 0 0 1-8 23 162.774 162.774 0 0 0-2.5 24h-3c.06-8.418-.774-16.752-2.5-25-7.787-14.805-10.62-30.472-8.5-47z"/><path style="opacity:1" fill="#120f0e" d="M111.5 9.5c7.692 4.347 12.192 11.014 13.5 20 1.903-8.152 6.07-14.819 12.5-20 2.599 6.413 3.433 13.08 2.5 20a137.737 137.737 0 0 1-9 31 100.725 100.725 0 0 0-2.5 25c-2.292.256-4.459-.077-6.5-1a223.058 223.058 0 0 0-2-21 684.198 684.198 0 0 1-9-28c-.711-8.694-.544-17.36.5-26z"/><path style="opacity:1" fill="#e3a31c" d="M112.5 12.5c2.928 1.091 5.094 3.091 6.5 6 2.711 5.978 4.877 11.978 6.5 18 .82-7.593 3.32-14.593 7.5-21 2.753-4.235 4.42-3.901 5 1a80.321 80.321 0 0 1-1 21l-8 24a120.094 120.094 0 0 0-2.5 23h-3a99.677 99.677 0 0 0-1.5-19 349.113 349.113 0 0 1-10-35 73.08 73.08 0 0 1 .5-18z"/><path style="opacity:1" fill="#0e0c0b" d="M103.5 57.5a25.638 25.638 0 0 1 6 6c-1.669 3.638-3.669 6.972-6 10a29.508 29.508 0 0 0-6-9.5 54.546 54.546 0 0 0 6-6.5z"/><path style="opacity:1" fill="#db9d1e" d="M103.5 59.5c1.645.979 2.979 2.312 4 4l-3.5 7a60.245 60.245 0 0 0-3.5-6.5 20.967 20.967 0 0 1 3-4.5z"/><path style="opacity:1" fill="#100e0e" d="M59.5 58.5c3.134.779 5.801 2.445 8 5-2.004 3.343-4.004 6.676-6 10-2.488-2.966-4.488-6.3-6-10 1.357-1.686 2.69-3.352 4-5z"/><path style="opacity:1" fill="#d99c1e" d="M60.5 60.5c2.044.531 3.71 1.698 5 3.5a69.049 69.049 0 0 0-4.5 6.5l-3.5-7c1.27-.788 2.27-1.788 3-3z"/><path style="opacity:1" fill="#14110f" d="M93.5 63.5c5.814 4.842 9.314 11.175 10.5 19 1.412-7.902 4.912-14.735 10.5-20.5a4.932 4.932 0 0 1 3-.5 119.848 119.848 0 0 1 .5 25 507.45 507.45 0 0 1-9 29 223.09 223.09 0 0 0-2 21c-2.041.923-4.208 1.256-6.5 1 .491-14.73-2.342-28.73-8.5-42-3.487-10.168-4.153-20.5-2-31 .628-3.453 1.795-3.787 3.5-1z"/><path style="opacity:1" fill="#e4a31c" d="M93.5 63.5c5.267 7.448 8.6 15.781 10 25 1.815-9.288 5.649-17.62 11.5-25 1.163 1.785 1.83 3.785 2 6a72.117 72.117 0 0 1-2 22l-8 24a148.16 148.16 0 0 0-1.5 20h-3c.039-13.638-2.794-26.638-8.5-39-2.69-8.825-3.69-17.825-3-27 .002-2.551.836-4.551 2.5-6z"/><path style="opacity:1" fill="#14110f" d="M69.5 9.5c2.556 1.043 4.723 2.71 6.5 5a68.702 68.702 0 0 1 7 14c1.812-7.636 5.645-13.969 11.5-19 1.57 1.214 2.402 2.88 2.5 5a90.496 90.496 0 0 1 0 19 313.464 313.464 0 0 1-9 29 268.957 268.957 0 0 0-2.5 23h-6a202.045 202.045 0 0 0-1.5-20 657.663 657.663 0 0 1-10-33c-.868-7.78-.368-15.446 1.5-23z"/><path style="opacity:1" fill="#e3a31c" d="M70.5 11.5c6.655 6.918 10.655 15.251 12 25 1.821-9.314 5.655-17.647 11.5-25 2.912 9.263 2.912 18.596 0 28a467.858 467.858 0 0 1-8 23 185.802 185.802 0 0 0-2 21c-.414.457-.914.79-1.5 1a197.747 197.747 0 0 1-3.5-23 137.172 137.172 0 0 1-9-28 100.84 100.84 0 0 1 .5-22z"/><path style="opacity:1" fill="#14110e" d="M48.5 61.5c2.556 1.043 4.723 2.71 6.5 5a64.907 64.907 0 0 1 6 14c2.18-7.192 6.013-13.359 11.5-18.5.984-.59 1.65-.258 2 1 2.216 7.74 2.55 15.574 1 23.5a236.74 236.74 0 0 1-8.5 26 141.567 141.567 0 0 0-2.5 25h-6a126.294 126.294 0 0 0-2.5-23c-3.4-9.534-6.4-19.2-9-29-.984-8.155-.484-16.155 1.5-24z"/><path style="opacity:1" fill="#e4a31c" d="M49.5 63.5c6.473 6.956 10.306 15.29 11.5 25 1.576-9.487 5.576-17.82 12-25 1.956 8.66 1.956 17.327 0 26a510.117 510.117 0 0 0-9 29 875.723 875.723 0 0 1-1.5 17h-3a101.23 101.23 0 0 0-1.5-21A140.31 140.31 0 0 1 47.5 76c.53-4.21 1.196-8.377 2-12.5z"/><path style="opacity:1" fill="#e3a31c" d="M70.5 112.5c3.209 2.728 5.709 6.061 7.5 10a129.084 129.084 0 0 1 4.5 15c1.699-9.393 5.532-17.726 11.5-25 2.912 9.263 2.912 18.596 0 28-6.659 14.632-9.825 29.965-9.5 46h-3a203.102 203.102 0 0 0-3.5-27 181.785 181.785 0 0 1-8-25 90.716 90.716 0 0 1 .5-22z"/><path style="opacity:1" fill="#14100c" d="M81.5 107.5c2.84.923 5.174 2.59 7 5l-6 10a46.196 46.196 0 0 0-6-10 17.857 17.857 0 0 0 5-5z"/><path style="opacity:1" fill="#e1a11d" d="M81.5 109.5c2.044.531 3.71 1.698 5 3.5a18.592 18.592 0 0 0-3.5 6.5 69.088 69.088 0 0 0-4.5-6.5 14.694 14.694 0 0 0 3-3.5z"/><path style="opacity:1" fill="#fdfdfd" d="M-.5 117.5c7.427 40.761 31.427 65.427 72 74h-72v-74zM165.5 119.5v72h-73c40.205-7.871 64.538-31.871 73-72z"/></svg>
